X: 175
T: Miss Dinning of Newland's Strathspey
R: strathspey
B: William Shepherd "2nd Collection" 1800 p.17 #5
F: http://imslp.org/wiki/File:PMLP73094-Shepherd_Collections_HMT.pdf
C: William Shepherd (17??-1812)
Z: 2012 John Chambers <jc:trillian.mit.edu>
N: Long beams broken to improve readability.
M: C
L: 1/16
K: Em
B,2 |\
E3F G3F EB3 TG4 | Dd3 Fd3 DA3 FD3 |\
E3F G3F EB3 TG4 | d3D {B}A2.G.F BE3- E2B,2 |
E3F G3F EB3 TG4 | Dd3 Fd3 DA3 FD3 |\
E3F G3A B3d e3f | g3e fgaf g2e2 e2f2 ||
Tg3f e3b g3e e3g | f3d fgag f3d d3f |\
Tg3f e2b2 g3e e3^c | d3D TF3A B3E E3f |
Tg3f e3b g3e e3g | f3d fgag f3d d3f |\
e3g f3a g3b eT^c3 | d3D {B}A2.G.F B2E2 TE2 |]
